X: 112
T: No_3_An_Eagle_Feather_I_See.krn
%%abc-version 2.0
%%abcx-abcm2ps-target-version 5.9.1 (29 Sep 2008)
%%abc-creator hum2abc beta
%%abcx-conversion-date 2020/08/10 18:54:56
%%gracespace 0 6 6
%%humdrum-veritas 2965248491
%%humdrum-veritas-data 1506538678
%%linebreak <none>
%%barnumbers 0
L: 1/8
M: 3/4
%%staves {1 2}
V: 1 clef=bass
V: 2 clef=bass
K: A
[V:1] [K:clef=bass][M:3/4]EE EC/>C/C2 ||  
[V:2] [K:clef=bass][M:3/4]!accent!G,,G,, !accent!G,,G,, !accent!G,,G,, ||  
[V:1] [M:2/4]A,A,A,2 ||  
[V:2] [M:2/4]z4 ||  
[V:1] [M:3/4]CC CB,/>B,/B,2 ||  
[V:2] [M:3/4]z6 ||  
[V:1] [M:2/4]A,/>F,/F,F,2 ||  
[V:2] [M:2/4]z4 ||  
[V:1] [M:3/4]CC2<A,2C ||  
[V:2] [M:3/4]z6 ||  
[V:1] [M:2/4]A,/<F,/F,F,2 ||  
[V:2] [M:2/4]z4 ||  
[V:1] [M:3/4]A,A,F,2E,2 ||  
[V:2] [M:3/4]z6 ||  
[V:1] [M:2/4]E,/C,/C,C,2 ||  
[V:2] [M:2/4]z4 ||  
[V:1] [M:3/4]E,E,C,2C,2 ||  
[V:2] [M:3/4]z6 ||  
[V:1] [M:2/4]A,,A,,A,,2 | 
[V:2] [M:2/4]z4 | 
[V:1] A,,4 |]  
[V:2] z4 |]  


